!!!!SEGMENT: pl-lzu--m-15111--001-035_noskowski-zygmunt--spiewnik-dla-dzieci-op-34-35-tecza.krn
!!!cenid: 18xx:4732
!!!COM: Noskowski, Zygmunt
!!!COM-rismID: pe106604
!!!CDT: 1846/05/02-1909/07/23
!!!CNT: Polish
!!!GTL: Śpiewnik dla dzieci, op. 34
!!!OTL: 35. Tęcza
!!!OMV: 035
!!!PDT: 1890
!!!AGN: Secular; Song; Children
!!!YEC: Copyright 2022 Narodowy Instytut Fryderyka Chopina (https://polishscores.org)
!!!YEM: License CC-BY-4.0 (https://creativecommons.org/licenses/by/4.0)
!!!SMS-siglum: PL-LŹu
!!!SMS-shelfmark: M 15111
!!!SMS-variant:
!!!SMS-altvar:
!!!SMS-shelfwork: 001-035 G
!!!NIFC-rismSourceID: 1001234040
!!!NIFC-rismChildID: 1001234040
!!!NIFC-islandoraID: pl-lzu:5455
!!!URL-pdf-islandora: https://repozytorium.nifc.pl/islandora/object/pl-lzu%3A5455/datastream/PDF/view
!!!URL-scan: https://polish.musicsources.pl/pl/lokalizacje/galeria/druki-muzyczne/23228/42 @EN{Scan on Polish Music Sources Website} @PL{Skany w portalu Dziedzictwo Muzyki Polskiej w otwartym dostępie}
!!!IIIF:
!!!ONB-nifc:
!!!AIN: 1 piano 1 vox
!!!key: d
!!!OMD: Allegretto.
**kern	**kern	**dynam	**kern	**text	**dynam
*part2	*part2	*part2	*part1	*part1	*part1
*staff3	*staff2	*staff2/3	*staff1	*staff1	*staff1
*I"[Piano]	*I"[Piano]	*	*I"[Voice]	*	*
*I'pf	*I'pf	*	*I'V	*	*
*Ipiano	*Ipiano	*	*Ivox	*	*
*ICklav	*ICklav	*	*ICvox	*	*
*IGacmp	*IGacmp	*	*IGsolo	*	*
*clefF4	*clefG2	*	*clefG2	*	*
*k[b-]	*k[b-]	*	*k[b-]	*	*
*d:	*d:	*	*d:	*	*
*M3/4	*M3/4	*	*M3/4	*	*
!	!LO:TX:a:i:t=Cokolwiek żwawo.	!LO:DY:rj	!	!	!LO:DY:rj
(4D\	(4d/	p	4d/	A	p
=1	=1	=1	=1	=1	=1
4d\	4dd\	.	4dd\	kto	.
4c#X\	4cc#X\	.	4cc#X\	cie-	.
4A\	4a/	.	4a/	-bie,	.
=2	=2	=2	=2	=2	=2
8B-\L	8b-\L	.	8b-\	śli-	.
8d\J	8dd\J	.	8dd\	-czna	.
4c#X\)	4cc#X\)	.	4cc#X\	tę-	.
(8A\L	(8a/L	.	(8a/L	-czo,	.
8B-\J)	8b-/J)	.	8b-/J)	.	.
=3	=3	=3	=3	=3	=3
(8cn\L	(8ccn\L	.	8ccn\	Sied-	.
8B-\J	8b-\J	.	8b-\	-mio-	.
4A\	4a/	.	4a/	-bar-	.
4G\	4g/	.	4g/	-wny	.
=4	=4	=4	=4	=4	=4
8F\L	8f/L	.	(8f/L	pa-	.
8E\J	8e/J	.	8e/J)	.	.
4D\)	4d/)	.	4d/	-sie,	.
4r	4r	.	4r	.	.
!!LO:LB:g=original
=5	=5	=5	=5	=5	=5
*^	*^	*	*	*	*
4A 4AA\	4ryy	(8e/L	(4c\	.	8e/	Wy-	.
.	.	8a/J	.	.	8a/	-ma-	.
8A/L	2D\	8f/L	2d\)	<	(8f/L	-lo-	<
8G/J	.	8g/J	.	.	8g/J)	.	.
4F/	.	4a/)	.	[	4a/	-wał	[
*v	*v	*	*	*	*	*	*
=6	=6	=6	=6	=6	=6	=6
4C/	(8e/L	4A\	.	8e/	na	.
.	8a/J	.	.	8a/	tej	.
4BB-/	8f/L	4d\	<	(8f/L	chmu-	<
.	8g/J	.	.	8g/J)	.	.
4AA/	4a/)	4c\	[	4a/	-rze,	[
=7	=7	=7	=7	=7	=7	=7
4GG/	(8b-/L	4d\	.	8b-/	Jak-	.
.	8a/J	.	.	8a/	-by	.
4EE/	4.cc/	2g 2c\	.	4.cc^\	na	.
4E\	.	.	.	.	.	.
.	8b-/)	.	.	8b-\	a-	.
=8	=8	=8	=8	=8	=8	=8
2F\	4b-/	2f 2c\	.	4b-/	-tła-	.
.	4a/	.	.	4a/	-sie?	.
4r;	8r;	4ryy	.	8r;	.	.
.	8a/	.	mf	8a/	Sło-	mf
*	*v	*v	*	*	*	*
!!LO:PB:g=original
=9	=9	=9	=9	=9	=9
!	!	!	!LO:TX:a:i:t=animato	!	!
2.C/	(8gL 8B-/	.	4g/	-necz-	.
.	8c/	.	.	.	.
.	8f 8B-/	.	4f/	-ko	.
.	8c/	.	.	.	.
.	8e 8B-/	.	4e/	mnie	.
.	8c/J)	.	.	.	.
=10	=10	=10	=10	=10	=10
2.C 2.FF/	(8dL 8A/	.	8d/	ma-	<
.	8e 8c/	.	8e/	-lo-	.
.	8f 8A/	.	4f/	-wa-	.
.	8c/	.	.	.	.
.	8A/	.	8.cc,\	-ło	[
.	8c/J)	.	.	.	.
.	.	.	16a/	Po	.
=11	=11	=11	=11	=11	=11
2.C 2.CC/	(8gL 8B-/	.	4g/	de-	.
.	8c/	.	.	.	.
.	8f 8B-/	.	4f/	-szczu,	.
.	8c/	.	.	.	.
.	8e 8B-/	.	4e/	po	.
.	8c/J)	.	.	.	.
=12	=12	=12	=12	=12	=12
2C 2FF/	(8dL 8A/	.	(8d/L	bu-	.
.	8e 8c/	.	8e/J)	.	.
.	8f 8A/	.	8f/	-rzy,	.
.	8c/	.	8r	.	.
4r	8a 8f/	.	8a/	Po-	.
.	8b-J 8e/)	.	8b-/	-ży-	.
!!LO:LB:g=original
=13	=13	=13	=13	=13	=13
2.F 2.FF/	(8ccL 8e-X/	.	4.cc\	-czy-	.
.	8f/	.	.	.	.
.	8A/	.	.	.	.
.	8g 8e-/	.	8g/	-ło	.
.	8a 8f/	.	8a/	so-	.
.	8gJ 8e-/)	.	8g/	-bie	.
=14	=14	=14	=14	=14	=14
2.F 2.BB-/	(8fL 8A/	.	4f/	far-	.
.	8e-X/	.	.	.	.
.	8d/	.	4b-,/	-by	.
.	8f/	.	.	.	.
.	8d/	.	4a/	Od	.
.	8f/J)	.	.	.	.
=15	=15	=15	=15	=15	=15
2.BB-/	(8G/L	.	(8g/L	tej	.
.	8d/	.	8f/J)	.	.
.	8en/	.	4en/	peł-	.
.	8d/	.	.	.	.
.	8G/	.	(8f/L	-nej	.
.	8d/J)	.	8g/J)	.	.
=16	=16	=16	=16	=16	=16
2.AA/	(8G/L	.	(4a/	ró-	.
.	8c#X/	>	.	.	>
.	8e/	.	4g/)	.	.
.	8c#/	]	.	.	]
.	8G/	.	4e,/	-ży.	.
.	8c#/J)	.	.	.	.
!!LO:LB:g=original
=17	=17	=17	=17	=17	=17
*	*^	*	*	*	*
4D 4DD/	4f 4F/	4ryy	p	8d/	Po-	p
.	.	.	.	8dd\	-ży-	.
2A 2D\	(4cc#X/	2g 2e\	.	4cc#X\	-czy-	.
.	4a/)	.	.	4a/	-ło	.
=18	=18	=18	=18	=18	=18	=18
4G 4D\	(8b-/L	4g 4d\	.	8b-\	so-	.
.	8dd/J	.	.	8dd\	-bie	.
2A 2D\	4cc#X 4g 4c#X/)	4ryy	.	4cc#X\	far-	.
.	8a/L	4f 4d\	.	8a,/	-by	.
.	8b-/J	.	.	8b-\	Od	.
*	*v	*v	*	*	*	*
=19	=19	=19	=19	=19	=19
(8AA/L	(>8ccnL 8f 8cn/	.	(8ccn\L	kwiat-	.
8BB-/J	8b-J 8f 8d/	.	8b-\J)	.	.
4C/	4a 4e 4c/	.	4a/	-ków	.
4C#X/	4g 4e 4B-/	.	4g/	z o-	.
=20	=20	=20	=20	=20	=20
8D\L	8fL 8d 8A/	.	(8f/L	-gro-	.
8E\J	8eJ 8c#X 8G/	.	8e/J)	.	.
4F\)	4d 4A/)	.	4d/	-da	.
4D\	4r	.	4r	.	.
!!LO:PB:g=original
=21	=21	=21	=21	=21	=21
*	*^	*	*	*	*
4C/	(8e/L	4A\	.	8e/	Ma-	.
.	8a/J	.	.	8a/	-lo-	.
4BB-/	8f/L	4d\	.	(8f/L	-wa-	.
.	8g/J	.	.	8g/J)	.	.
4F 4FF/	4a 4f 4c/)	4ryy	.	4a/	-ło	.
=22	=22	=22	=22	=22	=22	=22
4A 4AA\	(8e/L	4c\	.	8e/	tę-	.
.	8a/J	.	.	8a/	-czę	.
4A 4D\	8f/L	4d\	.	(8f/L	na	.
.	8g/J	.	.	8g/J)	.	.
4r;	8a/)	4ryy	.	8a/	znak,	.
.	16r;	.	.	16r	.	.
.	16a/	.	f	16a/	Że	f
*	*v	*v	*	*	*	*
=23	=23	=23	=23	=23	=23
4D 4DD/	4a 4f#X 4c/	.	(4.dd\	bę-	.
4D 4GG/	4g 4Bn/	.	.	.	.
.	.	.	8bn\)	.	.
4D 4EE/	4g 4B/	.	8cc#X\	-dzie	.
.	.	.	8b\	po-	.
=24	=24	=24	=24	=24	=24
4C#X 4AA/	4e 4G/	>	(8a/L	-go-	>
.	.	.	8e/J)	.	.
4D\	2d 2F#X;/	]	4d;/	-da!	]
4DD;/	.	.	4r	.	.
==	==	==	==	==	==
*-	*-	*-	*-	*-	*-
!!!system-decoration: p1{p2}
!!!RDF**kern: > = above
!!!RDF**kern: < = below
!!!ENC: Andrzej Gręziak
!!!END: 2025-03-06
!!!ENC: Marta Lawrence
!!!END: 2025-03-22
